static/mapDetailHeart.svg

<svg width="24" height="21" viewBox="0 0 24 21" fill="current" xmlns="http://www.w3.org/2000/svg">
<path d="M21.8359 1.84349C19.1022 -0.805334 14.7424 -0.525083 12.0966 2.2051C12.035 2.26839 11.9296 2.26839 11.8592 2.2051C9.20466 -0.525083 4.84482 -0.805334 2.11992 1.84349C-0.604974 4.49231 -0.754403 9.15714 1.97049 11.9596L9.89028 20.105C11.0506 21.2983 12.9228 21.2983 14.0831 20.105L21.6777 12.2941L21.9941 11.9687C24.719 9.16618 24.6662 4.59176 21.8447 1.85253L21.8359 1.84349Z" fill="current"/>
</svg>

<svg xmlns="http://www.w3.org/2000/svg" width="24" height="21" fill="current"><path d="M21.836 1.843c-2.734-2.648-7.094-2.368-9.74.362-.061.063-.166.063-.237 0-2.654-2.73-7.014-3.01-9.74-.362C-.604 4.493-.753 9.157 1.97 11.96l7.92 8.145a2.903 2.903 0 0 0 4.193 0l7.595-7.81.316-.326c2.725-2.803 2.672-7.377-.15-10.116l-.008-.01Z"/></svg>
